X: 32
T:Jaybird
% Nottingham Music Database
S:via PR
M:4/4
L:1/4
K:D
a/2g/2|"D"fd fd|f/2af/2 ag/2f/2|"C"e=c ec|e/2ge/2 ga/2g/2|
"D"fd fd|"D"f/2af/2 a(3A/2B/2c/2|"G"dd/2B/2 "A"A/2B/2A/2G/2|"D"FD D::
E/2F/2|"G"GB BA/2G/2|"D"F/2AA/2 Ac/2d/2|"E"ee/2f/2 ed|"A"c/2d/2B/2c/2 AE/2F/2|
"G"G/2BB/2 BA/2G/2|"D"F/2AA/2 AB/2c/2|"G"d/2c/2d/2B/2 "A"A/2B/2A/2G/2|"D"FD D\
:|<end>
<start>
